assets/icons/qvision/maps_ugc.svg

<svg xmlns="http://www.w3.org/2000/svg" enable-background="new 0 0 24 24" height="24" viewBox="0 0 24 24" width="24"><rect fill="none" fill-rule="evenodd" height="24" width="24"/><path d="M12,2C6.48,2,2,6.48,2,12c0,1.54,0.36,2.98,0.97,4.29L1,23l6.71-1.97 C9.02,21.64,10.46,22,12,22c5.52,0,10-4.48,10-10C22,6.48,17.52,2,12,2z M16,13h-3v3h-2v-3H8v-2h3V8h2v3h3V13z" fill-rule="evenodd"/></svg>

<svg width="24" height="24" viewBox="0 0 24 24" fill="none" xmlns="http://www.w3.org/2000/svg">
<g clip-path="url(#clip0_147_5478)">
<path fill-rule="evenodd" clip-rule="evenodd" d="M12 2C6.48 2 2 6.48 2 12C2 13.54 2.36 14.98 2.97 16.29L1 23L7.71 21.03C9.02 21.64 10.46 22 12 22C17.52 22 22 17.52 22 12C22 6.48 17.52 2 12 2ZM16 13H13V16H11V13H8V11H11V8H13V11H16V13Z" fill="#323232"/>
</g>
<defs>
<clipPath id="clip0_147_5478">
<rect width="24" height="24" fill="white"/>
</clipPath>
</defs>
</svg>
